icons/linear-ele-nature-weather-cloudy.svg

<svg xmlns="http://www.w3.org/2000/svg" width="32px" height="32px" viewBox="0 0 32 32" version="1.1">
    <title>linear-ele-nature-weather-cloudy</title>
    <g id="linear-ele-nature-weather-cloudy" stroke-width="1" fill-rule="evenodd">
        <path d="M16,5 C19.7628688,5 22.9659343,7.61238279 23.7933295,11.1856052 L23.797,11.202 L23.8142735,11.2065167 C27.3064167,12.0152826 29.8807595,15.0927686 29.9959713,18.7443298 L30,19 C30,23.418278 26.418278,27 22,27 L10,27 C5.581722,27 2,23.418278 2,19 C2,15.2371312 4.61238279,12.0340657 8.18560517,11.2066705 L8.202,11.202 L8.20651672,11.1857265 C9.01528258,7.69358327 12.0927686,5.1192405 15.7443298,5.00402871 L16,5 Z M16,7 C12.9857772,7 10.4496078,9.23615466 10.0532378,12.1950633 L9.95182995,12.9520741 L9.19481412,13.0534443 C6.23613601,13.4496338 4,15.9857889 4,19 C4,22.3137085 6.6862915,25 10,25 L22,25 C25.3137085,25 28,22.3137085 28,19 C28,15.9857772 25.7638453,13.4496078 22.8049367,13.0532378 L22.0479259,12.95183 L21.9465557,12.1948141 C21.5503662,9.23613601 19.0142111,7 16,7 Z" id="&#24418;&#29366;" fill-rule="nonzero" />
    </g>
</svg>

<svg xmlns="http://www.w3.org/2000/svg" viewBox="0 0 32 32"><path fill="currentColor" d="M16 5a8.004 8.004 0 0 1 7.793 6.186l.004.016.017.005a8.004 8.004 0 0 1 6.182 7.537L30 19a8 8 0 0 1-8 8H10a8 8 0 0 1-1.814-15.793l.016-.005.005-.016a8.004 8.004 0 0 1 7.537-6.182zm0 2a6.002 6.002 0 0 0-5.947 5.195l-.101.757-.757.101A6.001 6.001 0 0 0 10 25h12a6 6 0 0 0 .805-11.947l-.757-.101-.101-.757A6.001 6.001 0 0 0 16 7"/></svg>
